icons/filled/sort-ascending-2.svg

<svg xmlns="http://www.w3.org/2000/svg" width="24" height="24" viewBox="0 0 24 24" fill="currentColor"><path d="M16.852 5.011l.058 -.007l.09 -.004l.075 .003l.126 .017l.111 .03l.111 .044l.098 .052l.104 .074l.082 .073l3 3a1 1 0 1 1 -1.414 1.414l-1.293 -1.292v9.585a1 1 0 0 1 -2 0v-9.585l-1.293 1.292a1 1 0 0 1 -1.32 .083l-.094 -.083a1 1 0 0 1 0 -1.414l3 -3q .053 -.054 .112 -.097l.11 -.071l.114 -.054l.105 -.035z"/><path d="M9.5 4a1.5 1.5 0 0 1 1.5 1.5v4a1.5 1.5 0 0 1 -1.5 1.5h-4a1.5 1.5 0 0 1 -1.5 -1.5v-4a1.5 1.5 0 0 1 1.5 -1.5z"/><path d="M9.5 13a1.5 1.5 0 0 1 1.5 1.5v4a1.5 1.5 0 0 1 -1.5 1.5h-4a1.5 1.5 0 0 1 -1.5 -1.5v-4a1.5 1.5 0 0 1 1.5 -1.5z"/></svg>

<svg xmlns="http://www.w3.org/2000/svg" width="24" height="24" fill="currentColor"><path d="m16.852 5.011.058-.007L17 5l.075.003.126.017.111.03.111.044.098.052.104.074.082.073 3 3a1 1 0 1 1-1.414 1.414L18 8.415V18a1 1 0 0 1-2 0V8.415l-1.293 1.292a1 1 0 0 1-1.32.083l-.094-.083a1 1 0 0 1 0-1.414l3-3q.053-.054.112-.097l.11-.071.114-.054.105-.035zM9.5 4A1.5 1.5 0 0 1 11 5.5v4A1.5 1.5 0 0 1 9.5 11h-4A1.5 1.5 0 0 1 4 9.5v-4A1.5 1.5 0 0 1 5.5 4zM9.5 13a1.5 1.5 0 0 1 1.5 1.5v4A1.5 1.5 0 0 1 9.5 20h-4A1.5 1.5 0 0 1 4 18.5v-4A1.5 1.5 0 0 1 5.5 13z"/></svg>
